
d5
$ n "[0 2]*4[0 0,5 5]*2" # sound "soskick"
# gain 1.05
-- # gain 0.8

d5 silence

d5 $ every 2 (jux rev) $ n "0*2 0*2 1 [0 0 ~ 0, 5 ~] " # "soskick"

-- end

d5
$ n "[[0 2]*4 [0 2]*4]" # sound "soskick"
# gain 1.05
# crush (range 7 4 sine)
